src/symbolic/apps/accessories-screenshot-symbolic.svg

<svg xmlns="http://www.w3.org/2000/svg" width="16" height="16"><path d="M2 0C0 0 0 2 0 2v9s0 2 2 2h1v-2.02H2V2h12v5h2V2s0-2-2-2z" fill="#444"/><path d="M8.03 7l-1 1H5c-.47.06-1 .54-1 1v6c0 .46.53 1 1 1h10c.47 0 1-.54 1-1V9c0-.46-.53-1-1-1h-1.97l-1-1zM10 9c1.66 0 3 1.34 3 3 0 1.65-1.34 3-3 3s-3-1.35-3-3c0-1.66 1.34-3 3-3zm0 1a2 2 0 1 0 2 2c0-1.11-.89-2-2-2z" fill="#444"/></svg>

<svg xmlns="http://www.w3.org/2000/svg" width="16" height="16" version="1.1">
 <path style="fill:#444444" d="M 2,0 C 0,0 0,2 0,2 V 11 C 0,11 0,13 2,13 H 3 V 10.98 H 2 V 2 H 14 V 7 H 16 V 2 C 16,2 16,0 14,0 Z"/>
 <path style="fill:#444444" d="M 8.03,7 7.03,8 H 5 C 4.53,8.06 4,8.54 4,9 V 15 C 4,15.46 4.53,16 5,16 H 15 C 15.47,16 16,15.46 16,15 V 9 C 16,8.54 15.47,8 15,8 H 13.03 L 12.03,7 Z M 10,9 C 11.66,9 13,10.34 13,12 13,13.65 11.66,15 10,15 8.34,15 7,13.65 7,12 7,10.34 8.34,9 10,9 Z M 10,10 C 8.9,10 8,10.89 8,12 8,13.1 8.9,14 10,14 11.11,14 12,13.1 12,12 12,10.89 11.11,10 10,10 Z"/>
</svg>
